X:86
T:Jackie Donnans Mazurka (2)
R:Mazurka
S:Nigel and Dianna Bouillier, Bangor (banjo, fiddle).
D:Ulster TV program 'From Glen To Glen'
Q:300
M:3/4
Z:Bernie Stocks
K:G
GA |: B2 B2 AG | A2 dz dc | B2 BA GB | A2 G2 GA | B2 B2 AG | A2 dz dB |  
A2 G2 G2 |1 G4 GA :|2 G4 ef || g2 fe df | e2 d2 dc | B2 BA GB |
A2 G2 ef | g2 fe df | e2 a2 af | e2 a2 a2 | a4 ef | g2 fe df | e2 a2 dc | 
B2 AA GB |  A2 G2 GA | B2 B2 AG | A2 d2 dB | A2 G2 G2 | G6 ||
<end>
<start>
